src/frontend/assets/rounded_checkmark_icon.svg

<svg width="26" height="26" viewBox="0 0 26 26" fill="none" xmlns="http://www.w3.org/2000/svg">
<path fill-rule="evenodd" clip-rule="evenodd" d="M19.2236 9.30973C19.6048 9.70934 19.5899 10.3423 19.1903 10.7236L11.8528 17.7236C11.4662 18.0924 10.8579 18.0921 10.4716 17.723L6.80912 14.223C6.40983 13.8414 6.39547 13.2084 6.77704 12.8091C7.1586 12.4098 7.79161 12.3955 8.19089 12.777L11.1631 15.6174L17.8097 9.27645C18.2093 8.89522 18.8423 8.91012 19.2236 9.30973Z" fill="#607276"/>
<path fill-rule="evenodd" clip-rule="evenodd" d="M13 2C6.92487 2 2 6.92487 2 13C2 19.0751 6.92487 24 13 24C19.0751 24 24 19.0751 24 13C24 6.92487 19.0751 2 13 2ZM0 13C0 5.8203 5.8203 0 13 0C20.1797 0 26 5.8203 26 13C26 20.1797 20.1797 26 13 26C5.8203 26 0 20.1797 0 13Z" fill="#607276"/>
</svg>

<svg xmlns="http://www.w3.org/2000/svg" width="26" height="26" fill="none" viewBox="0 0 26 26"><path fill="#607276" fill-rule="evenodd" d="M19.224 9.31a1 1 0 0 1-.034 1.414l-7.337 7a1 1 0 0 1-1.381-.001l-3.663-3.5a1 1 0 0 1 1.382-1.446l2.972 2.84 6.647-6.34a1 1 0 0 1 1.414.033" clip-rule="evenodd"/><path fill="#607276" fill-rule="evenodd" d="M13 2C6.925 2 2 6.925 2 13s4.925 11 11 11 11-4.925 11-11S19.075 2 13 2M0 13C0 5.82 5.82 0 13 0s13 5.82 13 13-5.82 13-13 13S0 20.18 0 13" clip-rule="evenodd"/></svg>
